X:1
T:Title
%%score { ( 1 4 ) | ( 2 3 ) }
L:1/8
M:4/4
K:Eb
V:1 treble nm="Grand Piano"
V:4 treble 
V:2 bass 
V:3 bass 
V:1
 z4 z2[Q:1/4=100] [GB]A | G2 B2 E2 [Ge]2 | [EBd]2 [EAc]2 [GB]4 | [GB]3 [GB] [Ac]B[B,EG][B,E] | %4
[M:3/4] [B,EG]4 [B,DF]2 |[M:1/4] D-[DF] |[M:4/4] [G,E]2 [B,EG]2 [EGB]2 [EGe]2 | %7
 [EBd]2 [EAc]2 [EGB]4 | [DAB]3 [B,AB] cBAD |[M:3/4] [A,DF]4 [G,E]2 |[M:1/4] [B,EG]2 | %11
[M:4/4] [B,DF]2 [DB]2 [DB]2 [DF]2 | [EG][FA][GB]c [EGB]2 [B,EG]2 | [B,DF]2 [DFB]2 =A2 e2 | %14
[M:7/8] dcB =A [DB]3 |[M:1/4] [DB]A |[M:4/4] G2 B2 E2 [Ge]2 | [EBd]2 [EAc]2 [EGB]4 | %18
 [DAB]3 [B,AB] cBAD |[M:3/4] [A,DF]4 [G,E]2 |] %20
V:2
 z4 z2 z F | [E,B,E]2 [E,G,E]2 [G,B,]2 B,E | A,2 A,2 [E,E]4 | [E,E]3 [E,E] z G z G, | %4
[M:3/4] B,,4 B,,2 |[M:1/4] z A, |[M:4/4] E,2 E,2 E,2 E,2 | A,,B,,C,D, E,4 | %8
 F,3 F, [B,,A,]2 [B,,B,]-[B,,A,B,] |[M:3/4] B,,4 E,2 |[M:1/4] E,2 | %11
[M:4/4] B,,2 [B,,F,]2 [B,,F,]2 [B,,B,]2 | z2 [E,E]2 z4 | B,,2 B,,2 [F,CF]2 [F,=A,F]2 | %14
[M:7/8] [B,F][=A,E][F,B,D] [F,C] [B,,F,]3 |[M:1/4] B,,-[B,,B,F] | %16
[M:4/4] [E,B,E]2 [E,G,E]2 [G,B,]2 [E,B,]2 | A,,B,,C,D, E,4 | F,3 F, [B,,A,]2 [B,,B,]-[B,,A,B,] | %19
[M:3/4] B,,4 E,2 |] %20
V:3
 z4 z2 [E,B,]2 | z4 z2 E,2 | x8 | z4 [E,E]2 E,2 |[M:3/4] x6 |[M:1/4] B,,2 |[M:4/4] x8 | x8 | %8
 z4 z2 .F,2 |[M:3/4] x6 |[M:1/4] x2 |[M:4/4] x8 | [E,B,]2 z A E,2 E,2 | x8 |[M:7/8] F,2 z z z z2 | %15
[M:1/4] F, z |[M:4/4] x8 | x8 | z4 z2 .F,2 |[M:3/4] x6 |] %20
V:4
 x8 | x8 | x8 | x8 |[M:3/4] x6 |[M:1/4] [B,G] z |[M:4/4] x8 | x8 | z4 F2 z2 |[M:3/4] x6 | %10
[M:1/4] x2 |[M:4/4] x8 | x8 | x8 |[M:7/8] x7 |[M:1/4] x2 |[M:4/4] x8 | x8 | z4 F2 z2 |[M:3/4] x6 |] %20

